CSETWebApi/CSETWeb_Api/CSETWeb_ApiCore/Diagram/src/main/webapp/img/lib/mscae/App_Service_API_Apps.svg

<svg xmlns="http://www.w3.org/2000/svg" width="50" height="42.6"><path d="M0 40.6c0 1.1.9 2 2 2h46c1.1 0 2-.9 2-2V9.3H0v31.3z" fill="#59b4d9"/><path d="M44 3.7c0-1.2-.9-2.1-2.1-2.1s-2.1.9-2.1 2.1v21.1h-4.1c-.4-2.4-1.6-4.7-3.4-6.6-2.4-2.4-5.5-3.7-8.9-3.7-3.3 0-6.5 1.3-8.9 3.7-.8.8-.8 2.1 0 3 .8.8 2.1.8 3 0 1.6-1.6 3.7-2.4 5.9-2.4s4.3.9 5.9 2.4c3.3 3.3 3.3 8.6 0 11.8-1.6 1.6-3.7 2.4-5.9 2.4s-4.3-.9-5.9-2.4c-.8-.8-2.1-.8-3 0-.8.8-.8 2.1 0 3 2.4 2.4 5.5 3.7 8.9 3.7 3.3 0 6.5-1.3 8.9-3.7 2-2 3.1-4.4 3.5-7h6.1c1.2 0 2.1-.9 2.1-2.1V3.7zM23.4 21.9c-2 0-3.7 1.2-4.5 2.9h-8.7V3.7c0-1.2-.9-2.1-2.1-2.1-1.1 0-2 1-2 2.1v23.2c0 1.2.9 2.1 2.1 2.1H19c.8 1.7 2.5 2.9 4.5 2.9a4.95 4.95 0 0 0 5-5c-.1-2.8-2.4-5-5.1-5z" fill="#fff"/><path d="M48 0H2C.9 0 0 .9 0 2v7.6h50V2c0-1.1-.9-2-2-2" fill="#a0a1a2"/><path d="M2 0C.9 0 0 .9 0 2v38.6c0 1.1.9 2 2 2h2.2L43.6 0H2z" opacity=".2" fill="#fff"/></svg>

<?xml version="1.0" encoding="UTF-8" standalone="no"?>
<svg
   xmlns:dc="http://purl.org/dc/elements/1.1/"
   xmlns:cc="http://creativecommons.org/ns#"
   xmlns:rdf="http://www.w3.org/1999/02/22-rdf-syntax-ns#"
   xmlns:svg="http://www.w3.org/2000/svg"
   xmlns="http://www.w3.org/2000/svg"
   xmlns:sodipodi="http://sodipodi.sourceforge.net/DTD/sodipodi-0.dtd"
   xmlns:inkscape="http://www.inkscape.org/namespaces/inkscape"
   version="1.1"
   id="Layer_1"
   x="0px"
   y="0px"
   viewBox="0 0 50 42.599998"
   enable-background="new 0 0 50 50"
   xml:space="preserve"
   inkscape:version="0.91 r13725"
   sodipodi:docname="Azure App Service - Azure API Apps_COLOR.svg"
   width="50"
   height="42.599998"><metadata
     id="metadata4170"><rdf:RDF><cc:Work
         rdf:about=""><dc:format>image/svg+xml</dc:format><dc:type
           rdf:resource="http://purl.org/dc/dcmitype/StillImage" /><dc:title></dc:title></cc:Work></rdf:RDF></metadata><defs
     id="defs4168" /><sodipodi:namedview
     pagecolor="#ffffff"
     bordercolor="#666666"
     borderopacity="1"
     objecttolerance="10"
     gridtolerance="10"
     guidetolerance="10"
     inkscape:pageopacity="0"
     inkscape:pageshadow="2"
     inkscape:window-width="1920"
     inkscape:window-height="1018"
     id="namedview4166"
     showgrid="false"
     fit-margin-top="0"
     fit-margin-left="0"
     fit-margin-right="0"
     fit-margin-bottom="0"
     inkscape:zoom="12.034957"
     inkscape:cx="40.441745"
     inkscape:cy="18.34307"
     inkscape:window-x="-8"
     inkscape:window-y="-8"
     inkscape:window-maximized="1"
     inkscape:current-layer="Layer_1" /><path
     d="M 0,40.6 C 0,41.7 0.9,42.6 2,42.6 L 48,42.6 C 49.1,42.6 50,41.7 50,40.6 L 50,9.3 0,9.3 0,40.6 Z"
     id="path4156"
     inkscape:connector-curvature="0"
     style="fill:#59b4d9" /><path
     d="M 44,3.7 C 44,2.5 43.1,1.6 41.9,1.6 40.7,1.6 39.8,2.5 39.8,3.7 L 39.8,24.8 35.7,24.8 C 35.3,22.4 34.1,20.1 32.3,18.2 29.9,15.8 26.8,14.5 23.4,14.5 20.1,14.5 16.9,15.8 14.5,18.2 13.7,19 13.7,20.3 14.5,21.2 15.3,22 16.6,22 17.5,21.2 19.1,19.6 21.2,18.8 23.4,18.8 25.6,18.8 27.7,19.7 29.3,21.2 32.6,24.5 32.6,29.8 29.3,33 27.7,34.6 25.6,35.4 23.4,35.4 21.2,35.4 19.1,34.5 17.5,33 16.7,32.2 15.4,32.2 14.5,33 13.7,33.8 13.7,35.1 14.5,36 16.9,38.4 20,39.7 23.4,39.7 26.7,39.7 29.9,38.4 32.3,36 34.3,34 35.4,31.6 35.8,29 L 41.9,29 C 43.1,29 44,28.1 44,26.9 L 44,3.7 Z"
     id="path4158"
     inkscape:connector-curvature="0"
     style="fill:#ffffff" /><path
     d="M 23.4,21.9 C 21.4,21.9 19.7,23.1 18.9,24.8 L 10.2,24.8 10.2,3.7 C 10.2,2.5 9.3,1.6 8.1,1.6 7,1.6 6.1,2.6 6.1,3.7 L 6.1,26.9 C 6.1,28.1 7,29 8.2,29 L 19,29 C 19.8,30.7 21.5,31.9 23.5,31.9 26.3,31.9 28.5,29.7 28.5,26.9 28.4,24.1 26.1,21.9 23.4,21.9 Z"
     id="path4160"
     inkscape:connector-curvature="0"
     style="fill:#ffffff" /><path
     d="M 48,0 2,0 C 0.9,0 0,0.9 0,2 L 0,9.6 50,9.6 50,2 C 50,0.9 49.1,0 48,0"
     id="path4162"
     inkscape:connector-curvature="0"
     style="fill:#a0a1a2" /><path
     enable-background="new    "
     d="M 2,0 C 0.9,0 0,0.9 0,2 L 0,9.3 0,12.6 0,40.6 C 0,41.7 0.9,42.6 2,42.6 L 4.2,42.6 43.6,0 2,0 Z"
     id="path4164"
     inkscape:connector-curvature="0"
     style="opacity:0.2;fill:#ffffff" /></svg>
